!!!COM: Johannes Brahms
!!!LYR: Georg Scherer
!!!OTL: Good Evening, Good Night
!!!OTL@@DE: Guten Aben, Gute Nacht
!!!ARE: Deutschland
**kern
*clefG2
*k[]
*M3/4
*MM 70
{8e
8e
=1
4.g
8e
4e
=2
2g}
{8e
8g
=3
4cc
4.b
8a
=4
4a
4g}
{8d
8e
=5
4f
4d
8d
8e
=6
4f}
4r
{8d
8f
=7
8b
8a
4g
4b
=8
4cc}
4r
{8c
8c
=9
2cc
8a
8f
=10
2g}
{8e
8c
=11
4f
4g
4a
=12
2g}
{8c
8c
=13
2cc
8a
8f
=14
2g}
{8e
8c
=15
4f
4e
4d
=16
2.c}
2r
==
*-